svgs/pix_you_cornflower_dark_icons.svg

<svg width="192" height="192" viewBox="0 0 192 192" fill="none" xmlns="http://www.w3.org/2000/svg">
<path d="M80.5344 140.443L121.267 160.299C122.91 161.1 124.678 159.459 124.001 157.761L74.9458 34.6591C74.2766 32.9796 71.8993 32.9796 71.23 34.6591L22.167 157.779C21.4913 159.475 23.2537 161.115 24.8965 160.32L65.9909 140.422C66.8291 140.016 66.7062 138.785 65.8043 138.553L51.9567 134.991L73.0879 78.3102L95.2757 134.991L80.7334 138.573C79.8254 138.796 79.6938 140.033 80.5344 140.443Z" stroke="black" stroke-width="12" stroke-linejoin="round"/>
<path d="M106.978 113.226L110.59 104.263L120.695 77.2904L142.983 133.944L128.374 137.524C127.464 137.747 127.333 138.986 128.175 139.395L169.109 159.249C170.753 160.046 172.518 158.402 171.838 156.706L122.552 33.6362C121.881 31.9609 119.51 31.9609 118.839 33.6361L100.319 79.8819L97.5084 86.8117" stroke="black" stroke-width="8" stroke-linejoin="round"/>
</svg>

<svg xmlns="http://www.w3.org/2000/svg" width="192" height="192" fill="none" viewBox="0 0 192 192"><path stroke="#000" stroke-linejoin="round" stroke-width="12" d="m80.534 140.443 40.733 19.856c1.643.801 3.411-.84 2.734-2.538L74.946 34.659c-.67-1.68-3.047-1.68-3.716 0L22.167 157.78c-.676 1.696 1.087 3.336 2.73 2.541l41.094-19.898c.838-.406.715-1.637-.187-1.869l-13.847-3.562 21.13-56.68 22.189 56.68-14.543 3.582c-.908.223-1.04 1.46-.199 1.87Z"/><path stroke="#000" stroke-linejoin="round" stroke-width="8" d="m106.978 113.226 3.612-8.963 10.105-26.973 22.288 56.654-14.609 3.58c-.91.223-1.041 1.462-.199 1.871l40.934 19.854c1.644.797 3.409-.847 2.729-2.543l-49.286-123.07c-.671-1.675-3.042-1.675-3.713 0l-18.52 46.246-2.81 6.93"/></svg>
